X: 146
T:Missa Ad fugam / Agnus Dei (version I)
N: Derived from Jos1201e.a-Missa_Ad_fugam-Agnus-version_I.krn
C: Josquin des Prez
%%abc-version 2.0
%%abcx-abcm2ps-target-version 5.9.1 (29 Sep 2008)
%%abc-creator hum2abc beta
%%abcx-conversion-date 2019/02/12 16:15:45
%%abc-edited-by Jesse Rodin
%%abc-edited-by Jesse Rodin; Victoria Chang 2012/02/11
%%abcx-initial-encoding-date 2012/02/11/
%%humdrum-veritas 104337592
%%humdrum-veritas-data 2303009093
%%linebreak <none>
%%barnumbers 0
L: 1/4
M: 3/1
Q: 1/2=120
%%staves [1 2 3 4]
V: 1 clef=treble
V: 2 clef=treble-8
V: 3 clef=treble-8
V: 4 clef=bass
K: F
[V:1] G8G4 | 
[V:2] G6A2B3c | 
[V:3] z12 | 
[V:4] G,8E,4 | 
[V:1] A2A4GFE4 | 
[V:2] A8z2A2 | 
[V:3] c8c4 | 
[V:4] F,6G,2A,4 | 
[V:1] D4z4A4 | 
[V:2] B3AF2G2D4 | 
[V:3] d2d4cBA4 | 
[V:4] z2D,4G,4^F,2 | 
[V:1] B4A2A4G2 | 
[V:2] z2d4c2A2B2 | 
[V:3] G4z4d4 | 
[V:4] G,4D,2F,4E,D, | 
[V:1] G4z4F2G2 | 
[V:2] (3c2G2A2B8 | 
[V:3] _e4d2d4c2 | 
[V:4] C,4B,,6B,,2 | 
[V:1] A8G4 | 
[V:2] A3Bc2F2G4 | 
[V:3] c4z4B2c2 | 
[V:4] F,8E,4 | 
[V:1] F2A3GF2E4 | 
[V:2] A8z2c2 | 
[V:3] d8c4 | 
[V:4] D,8A,4 | 
[V:1] D2B3AG4^F2 | 
[V:2] d2G2B3cd4 | 
[V:3] B2d3cB2A4 | 
[V:4] B,4G,4D,4 | 
[V:1] G8z4 | 
[V:2] B2c2G2c2d2f2 | 
[V:3] G2_e3dc4=B2 | 
[V:4] _E,2C,2E,3F,D,4 | 
[V:1] G12 | 
[V:2] e6e2e4 | 
[V:3] c8z4 | 
[V:4] C,6D,2E,4 | 
[V:1] A6=B2c4 | 
[V:2] c4f4e2f2 | 
[V:3] c12 | 
[V:4] F,6G,2A,4 | 
[V:1] =B4A2A4GF | 
[V:2] g4f3e/d/c4- | 
[V:3] d6e2f4 | 
[V:4] G,3F,D,2F,4F,2 | 
[V:1] G4F8 | 
[V:2] c4A4B3A/G/ | 
[V:3] e4d2d4cB | 
[V:4] C,4D,4B,,4 | 
[V:1] E4z4G4 | 
[V:2] G2g4fed3e | 
[V:3] c4B8 | 
[V:4] C,4G,8 | 
[V:1] A12 | 
[V:2] f8f3e | 
[V:3] A4z4c4 | 
[V:4] D,6F,3G,A,2 | 
[V:1] =B4B4A4 | 
[V:2] g3fd2G2A4 | 
[V:3] d12 | 
[V:4] G,8F,4 | 
[V:1] G3A=B2c4B2 | 
[V:2] =B4z4z4 | 
[V:3] e4e4d4 | 
[V:4] E,3F,G,2A,4G,2 | 
[V:1] c4G2A4G2 | 
[V:2] z12 | 
[V:3] c3de2f4e2 | 
[V:4] A,3G,E,2D,2E,4 | 
[V:1] A4z2A3GA2 | 
[V:2] z12 | 
[V:3] f4c2d4c2 | 
[V:4] F,3G,A,2D,2A,4 | 
[V:1] F8F4 | 
[V:2] A8A4 | 
[V:3] d4z2d3cd2 | 
[V:4] D,12 | 
[V:1] D8d4- | 
[V:2] G2g4fed4- | 
[V:3] B8B4 | 
[V:4] G,12 | 
[V:1] d4=B8 | 
[V:2] d2g3fg2d4 | 
[V:3] G8g4- | 
[V:4] D8G,4 | 
[V:1] G8G4 | 
[V:2] G4c8 | 
[V:3] g4e8 | 
[V:4] E,4C,8 | 
[V:1] A6c3=BAG | 
[V:2] A8z4 | 
[V:3] c8c4 | 
[V:4] F,8A,4 | 
[V:1] F4A8 | 
[V:2] A6d3cA2- | 
[V:3] d6f3edc | 
[V:4] D,12 | 
[V:1] G4F8 | 
[V:2] A2G2A8 | 
[V:3] B4d8 | 
[V:4] E,4D,4F,3G, | 
[V:1] E3FG2A4G2 | 
[V:2] z12 | 
[V:3] c4B8 | 
[V:4] A,4z2D,2E,4 | 
[V:1] A4z4c4 | 
[V:2] f4e2d2e3f | 
[V:3] A3Bc2d4c2 | 
[V:4] F,3G,A,2D,2A,4 | 
[V:1] =B4A8 | 
[V:2] g4c4d4 | 
[V:3] d4z4f4 | 
[V:4] G,4F,4D,4 | 
[V:1] G4A2=B4AB | 
[V:2] G4z4g4 | 
[V:3] e4d8 | 
[V:4] E,3D,/E,/F,2G,3F,G,2 | 
[V:1] c4=B8 | 
[V:2] e2f2g8 | 
[V:3] c4d2e4de | 
[V:4] A,4G,8 | 
[V:1] A4z4c4 | 
[V:2] c4z4z4 | 
[V:3] f4e8 | 
[V:4] F,4A,8 | 
[V:1] d4=B2G2A4 | 
[V:2] A2B2G4d4 | 
[V:3] d4z4f4 | 
[V:4] D,2G,3F,E,2D,4 | 
[V:1] G8z4 | 
[V:2] B2c2G2c4=B2 | 
[V:3] g4e2c2d4 | 
[V:4] E,2C,3D,E,2F,2G,2 | 
[V:1] G6A2=B4 | 
[V:2] c2g4fed4 | 
[V:3] c8z4 | 
[V:4] C,3D,E,2F,4G,2 | 
[V:1] c6BAB4 | 
[V:2] z4z4B4 | 
[V:3] c6d2e4 | 
[V:4] A,6F,2G,4 | 
[V:1] A8G4 | 
[V:2] c12 | 
[V:3] f6_ed_e4 | 
[V:4] F,8C,4 | 
[V:1] d3cB2A3Bc2 | 
[V:2] f8e2c2 | 
[V:3] d8c4 | 
[V:4] z2D,3E,F,G,A,4 | 
[V:1] B4z4z4 | 
[V:2] d4B2G2A3B | 
[V:3] g3f_e2d3_ef2 | 
[V:4] G,6G,2D,4 | 
[V:1] z2G2A4=B4 | 
[V:2] c6d6 | 
[V:3] _e4z4z4 | 
[V:4] C,4F,4G,4 | 
[V:1] c4=B2A4G2 | 
[V:2] c4z4z4 | 
[V:3] z2c2d4e4 | 
[V:4] A,4G,2F,2E,4 | 
[V:1] A4G2F2E4 | 
[V:2] d3cB2A2z2e2 | 
[V:3] f4e2d4^c2 | 
[V:4] D,4E,2F,2G,2A,2 | 
[V:1] D2A3GG4^F2 | 
[V:2] f6e2d4 | 
[V:3] d4c2B2A4 | 
[V:4] D,2F,4G,2D,4 | 
[V:1] G12 ||  
[V:2] d12 ||  
[V:3] G12 ||  
[V:4] z2G,2B,3CG,4 & x8D4 ||  
[V:1]  [K:F] [K:clef=treble][M:2/1]D6E2 | 
[V:2]  [K:F] [K:clef=treble-8][M:2/1]z8 | 
[V:3]  [K:F] [K:clef=treble-8][M:2/1]z8 | 
[V:4]  [K:F] [K:clef=bass][M:2/1]G,8 | 
[V:1] F4G4- | 
[V:2] z8 | 
[V:3] z4G4- | 
[V:4] A,4B,4 | 
[V:1] G2F2D4 | 
[V:2] z8 | 
[V:3] G2A2B4 | 
[V:4] G,8 | 
[V:1] z4G4- | 
[V:2] z8 | 
[V:3] c6B2 | 
[V:4] C,6D,2 | 
[V:1] G2A2B4 | 
[V:2] z8 | 
[V:3] G4z4 | 
[V:4] E,2F,2G,4 | 
[V:1] c6B2 | 
[V:2] z8 | 
[V:3] c6d2 | 
[V:4] A,6B,2 | 
[V:1] G4A4- | 
[V:2] z8 | 
[V:3] e4f4- | 
[V:4] C4F,4- | 
[V:1] A2G2E4 | 
[V:2] z8 | 
[V:3] f2e2c4 | 
[V:4] F,2G,2A,4 | 
[V:1] F4D4 | 
[V:2] z8 | 
[V:3] d6c2 | 
[V:4] D,3E,F,2G,2- | 
[V:1] z4d4 | 
[V:2] z8 | 
[V:3] A4B4 | 
[V:4] G,2^F,2G,4 | 
[V:1] d6=B2- | 
[V:2] z8 | 
[V:3] G4z4 | 
[V:4] z4G,4- | 
[V:1] B2G2G4 | 
[V:2] z8 | 
[V:3] g4g4- | 
[V:4] G,2E,4C,2 | 
[V:1] z4G4- | 
[V:2] z8 | 
[V:3] g2e4c2 | 
[V:4] C,6E,2- | 
[V:1] G2A2=B4 | 
[V:2] z8 | 
[V:3] c4z4 | 
[V:4] E,2F,2G,4 | 
[V:1] c2A4GF | 
[V:2] z8 | 
[V:3] c6d2 | 
[V:4] A,4F,4 | 
[V:1] G2FED3E | 
[V:2] z8 | 
[V:3] e4f2d2- | 
[V:4] C,4z4 | 
[V:1] F2G4A2 | 
[V:2] z8 | 
[V:3] d2cBc2BA | 
[V:4] z8 | 
[V:1] =B6G2 | 
[V:2] z8 | 
[V:3] G3AB2c2- | 
[V:4] E,3F,G,2E,2 | 
[V:1] A4G4 | 
[V:2] z8 | 
[V:3] c2d2e4- | 
[V:4] F,4E,4 | 
[V:1] z2c4=B2 | 
[V:2] z8 | 
[V:3] e2c2d4 | 
[V:4] C,4G,4 | 
[V:1] A2c3=BA2 | 
[V:2] z8 | 
[V:3] c4z2f2- | 
[V:4] A,4F,4 | 
[V:1] G4F2D2- | 
[V:2] z8 | 
[V:3] f2e2d2f2- | 
[V:4] C4F,4- | 
[V:1] DEF2E4 | 
[V:2] z8 | 
[V:3] fed2c4 | 
[V:4] F,2G,2A,4 | 
[V:1] z2D2E2G2- | 
[V:2] z8 | 
[V:3] B2G3AB2 | 
[V:4] B,4G,4 | 
[V:1] G2^F2G4 | 
[V:2] z8 | 
[V:3] A4z2G2 | 
[V:4] D,4E,4 | 
[V:1] z4G4 | 
[V:2] z8 | 
[V:3] A2c4B2 | 
[V:4] F,4G,4 | 
[V:1] A2c4=B2 | 
[V:2] z8 | 
[V:3] c4z4 | 
[V:4] C,4G,4 | 
[V:1] c4z4 | 
[V:2] z8 | 
[V:3] c4d2f2- | 
[V:4] A,2F,4A,2 | 
[V:1] =B4A3B | 
[V:2] z8 | 
[V:3] f2e2f4 | 
[V:4] G,4F,3G, | 
[V:1] c2d4^c2 | 
[V:2] z8 | 
[V:3] z4e4 | 
[V:4] A,2B,2G,2A,2 | 
[V:1] d6c=B | 
[V:2] z8 | 
[V:3] d3ef2g2- | 
[V:4] D,2D2B,2G,2 | 
[V:1] A4=B4 | 
[V:2] z8 | 
[V:3] g2^f2g4- | 
[V:4] D4G,3A, | 
[V:1] G4z4 | 
[V:2] z8 | 
[V:3] g2fed4 | 
[V:4] B,2C4=B,2 | 
[V:1] G4G4 | 
[V:2] z8 | 
[V:3] e4c4 | 
[V:4] C4C,4 | 
[V:1] A4G2F2 | 
[V:2] z8 | 
[V:3] z4c4 | 
[V:4] F,4E,2F,2 | 
[V:1] E4D4 | 
[V:2] z8 | 
[V:3] c4d4 | 
[V:4] C,4G,4 | 
[V:1] E2G4^F2 | 
[V:2] z8 | 
[V:3] c2B2A4 | 
[V:4] z4D,4 | 
[V:1] G8- | 
[V:2] z8 | 
[V:3] G8- | 
[V:4] E,6C,2 | 
[V:1] G8 |]  
[V:2] z8 |]  
[V:3] G8 |]  
[V:4] C,8 |]  



